X:19004
T:Xiraldilla (CT 215)
R:Xiraldilla
C:Tradicional
S:Música Tradicional Asturiana, (C) Tello & Tito. Asturies, 2001.
S:http://pagina.de/MusTradAst <telloytito@asturies.org>
N:Xiraldilla, dictada por Ramón Colao, de cincuenta años, de Murias, ayuntamiento de Quirós.
O:Murias (Quirós)
A:Asturies
Z:Cancioneru de Torner 215
M:6/8
L:1/8
Q:1/4=88
W:-Vecinos, los mios vecinos,
W:los que veís alredor,
W:¿non viéstis la mio pitina
W:que por la venana entró?
W:-No, vecino, no, yo no lo ví, no;
W:no, vecnio, no, por aquí no entró.
W:
W:-Yo no siento la pitina,
W:ni el dinero que costó;
W:sólo siento los pitinos
W:que quedaron sin el clo.
W:-Cloroclocloclo, cloroclocloclo,
W:no, vecino, no, por aquí no entró.
K:G
B|d2 c Bcc|(d2 c) B2 A|B2 A GAc|(B2 A G2) B|
d2 c Bcc|(d2 c) B2 A|B2 A GAc|(BG)A ABc|
B2 A GFA|G2 A ABc|B2 A GFA|G3-Gz :||


